apps/statesvisited/state-images/PA.svg

<svg height="635" width="1182" xmlns="http://www.w3.org/2000/svg"><path d="m844.42862 194.18007s-7.7212-13.06651-11.2847-12.47258c-3.5636.59393-13.9575 4.45449-19.3028 5.34539-5.3454.8909-33.2603 5.34539-33.2603 5.34539s-9.5029 2.37573-12.1756 1.48483-3.5636-2.96966-3.5636-2.96966-4.7514 3.26663-5.9393 5.04842c-1.1878 1.7818-3.8605 5.04843-3.8605 5.04843s2.6727 19.00583 3.5636 22.56943c.8909 3.56359 4.1575 20.19369 4.1575 20.19369s9.7999-.89089 21.0846-2.67269 51.6721-9.20595 51.6721-9.20595.2969-1.7818 2.0787-3.26663 2.9697 2.07876 4.7515-.29697 6.5333-9.79988 5.6424-10.98774c-.8909-1.18787-2.0788-.59394-3.8606-3.26663-1.7818-2.6727-2.9697-12.76954-2.6727-14.84831.297-2.07876 3.2666-4.75146 2.9697-5.04842z" fill="#173f5f" fill-rule="evenodd" opacity=".9" stroke="#000"/></svg>

<?xml version="1.0" encoding="UTF-8" standalone="no"?>
<!-- Created with Inkscape (http://www.inkscape.org/) -->
<svg
   xmlns:dc="http://purl.org/dc/elements/1.1/"
   xmlns:cc="http://web.resource.org/cc/"
   xmlns:rdf="http://www.w3.org/1999/02/22-rdf-syntax-ns#"
   xmlns:svg="http://www.w3.org/2000/svg"
   xmlns="http://www.w3.org/2000/svg"
   xmlns:xlink="http://www.w3.org/1999/xlink"
   xmlns:sodipodi="http://sodipodi.sourceforge.net/DTD/sodipodi-0.dtd"
   xmlns:inkscape="http://www.inkscape.org/namespaces/inkscape"
   id="svg1923"
   sodipodi:version="0.32"
   inkscape:version="0.44"
   width="1182"
   height="635"
   version="1.0"
   sodipodi:docbase="/Users/amyshore/Desktop"
   sodipodi:docname="usa.svg">
  <metadata
     id="metadata1928">
    <rdf:RDF>
      <cc:Work
         rdf:about="">
        <dc:format>image/svg+xml</dc:format>
        <dc:type
           rdf:resource="http://purl.org/dc/dcmitype/StillImage" />
      </cc:Work>
    </rdf:RDF>
  </metadata>
  <defs
     id="defs1926" />
  <sodipodi:namedview
     inkscape:window-height="752"
     inkscape:window-width="1280"
     inkscape:pageshadow="2"
     inkscape:pageopacity="0.0"
     guidetolerance="10.0"
     gridtolerance="10.0"
     objecttolerance="10.0"
     borderopacity="1.0"
     bordercolor="#666666"
     pagecolor="#ffffff"
     id="base"
     inkscape:zoom="0.59527559"
     inkscape:cx="775.234"
     inkscape:cy="319.32597"
     inkscape:window-x="0"
     inkscape:window-y="22"
     inkscape:current-layer="layer2" />
  <g
     inkscape:groupmode="layer"
     id="layer1"
     inkscape:label="bg"
     style="opacity:1;display:none"
     sodipodi:insensitive="true">
    <image
       xlink:href="ElectoralCollege1996-Large.png"
       sodipodi:absref="/Users/amyshore/Desktop/ElectoralCollege1996-Large.png"
       width="1182"
       height="635"
       id="image1930"
       x="-1.3571358"
       y="1.6798911" />
  </g>
  <g
     inkscape:groupmode="layer"
     id="layer2"
     inkscape:label="vector"
     style="opacity:0.9;display:inline"> <path style="fill:#173f5f;fill-opacity:1;fill-rule:evenodd;stroke:black;stroke-width:1px;stroke-linecap:butt;stroke-linejoin:miter;stroke-opacity:1" d="M 844.42862,194.18007 C 844.42862,194.18007 836.70742,181.11356 833.14392,181.70749 C 829.58032,182.30142 819.18642,186.16198 813.84112,187.05288 C 808.49572,187.94378 780.58082,192.39827 780.58082,192.39827 C 780.58082,192.39827 771.07792,194.774 768.40522,193.8831 C 765.73252,192.9922 764.84162,190.91344 764.84162,190.91344 C 764.84162,190.91344 760.09022,194.18007 758.90232,195.96186 C 757.71452,197.74366 755.04182,201.01029 755.04182,201.01029 C 755.04182,201.01029 757.71452,220.01612 758.60542,223.57972 C 759.49632,227.14331 762.76292,243.77341 762.76292,243.77341 C 762.76292,243.77341 772.56282,242.88252 783.84752,241.10072 C 795.13222,239.31892 835.51962,231.89477 835.51962,231.89477 C 835.51962,231.89477 835.81652,230.11297 837.59832,228.62814 C 839.38012,227.14331 840.56802,230.7069 842.34982,228.33117 C 844.13162,225.95544 848.88312,218.53129 847.99222,217.34343 C 847.10132,216.15556 845.91342,216.74949 844.13162,214.0768 C 842.34982,211.4041 841.16192,201.30726 841.45892,199.22849 C 841.75592,197.14973 844.72552,194.47703 844.42862,194.18007 z " id="path12592" />   </g>
</svg>
